X:16
%%etbk:tnset id:6,pos:2,rep:3
%%etbk:site1 http://www.thesession.org/tunes/display/200
T: Splendid Isolation
Z: Piano Box Version by Martin Fleischmann (www.boxplayer.ch)
M: 4/4
L: 1/8
R: Reel
K: Gdor
|:!1!F!2!GGF !2!G!5!d!4!c!3!A|!2!G2AG !1!FGA!4!c | !5!d!3!A!4!c!3!A !1!GAB!4!c | !1!d!3!ggf ggga|
!5!bgag !2!f!1!ddd | !2!f2!1!e!3!g !2!f!1!d!2!c!1!A | !2!G2AG !1!FGA!4!c|!5!d!3!AcA !2!G4:|
|:!3!g2!4!ag !2!f!1!d !3!(3d!2!d!1!d | !3!gf!1!d!2!c !1!A!2!cdc | !1!A2!2!GG !3!A!4!cdc | !3!A!2!GGG !1!F4|
!1!FGGF GdcA | !2!G2AG !1!FGA!4!c | !3!d2 !5!g!3!g !2!fgag | !2!f!1!d!2!c!1!A !2!G4:|

